src/assets/svg/icons/fa/nuevos/classic/duotone/kitchen-set classic duotone.svg

<svg xmlns="http://www.w3.org/2000/svg" viewBox="0 0 576 512"><!--! Font Awesome Pro 6.4.0 by @fontawesome - https://fontawesome.com License - https://fontawesome.com/license (Commercial License) Copyright 2023 Fonticons, Inc. --><defs><style>.fa-secondary{opacity:.4}</style></defs><path class="fa-primary" d="M224 144A80 80 0 1 0 64 144a80 80 0 1 0 160 0zm60.4 32C269.9 240.1 212.5 288 144 288C64.5 288 0 223.5 0 144S64.5 0 144 0c68.5 0 125.9 47.9 140.4 112h71.8c8.8-9.8 21.6-16 35.8-16H496c26.5 0 48 21.5 48 48s-21.5 48-48 48H392c-14.2 0-27-6.2-35.8-16H284.4zM48 320h80 16 32c26.5 0 48 21.5 48 48s-21.5 48-48 48H160c0 17.7-14.3 32-32 32H64c-17.7 0-32-14.3-32-32V336c0-8.8 7.2-16 16-16zm128 64c8.8 0 16-7.2 16-16s-7.2-16-16-16H160v32h16zm336-64V464c0 26.5-21.5 48-48 48H336c-26.5 0-48-21.5-48-48V320H512z"/><path class="fa-secondary" d="M144 224a80 80 0 1 0 0-160 80 80 0 1 0 0 160zM16 480c-8.8 0-16 7.2-16 16s7.2 16 16 16H208c8.8 0 16-7.2 16-16s-7.2-16-16-16H16zM256 296c0 13.3 10.7 24 24 24H520c13.3 0 24-10.7 24-24s-10.7-24-24-24H424v-8c0-13.3-10.7-24-24-24s-24 10.7-24 24v8H280c-13.3 0-24 10.7-24 24z"/></svg>

<svg xmlns="http://www.w3.org/2000/svg" viewBox="0 0 576 512"><defs><style>.fa-secondary{opacity:.4}</style></defs><path class="fa-primary" d="M284.4 176C269.9 240.1 212.5 288 144 288C64.47 288 0 223.5 0 144C0 64.47 64.47 0 144 0C212.5 0 269.9 47.87 284.4 112H356.2C365 102.2 377.8 96 392 96H496C522.5 96 544 117.5 544 144C544 170.5 522.5 192 496 192H392C377.8 192 365 185.8 356.2 176H284.4zM144 64C99.82 64 64 99.82 64 144C64 188.2 99.82 224 144 224C188.2 224 224 188.2 224 144C224 99.82 188.2 64 144 64zM176 320C202.5 320 224 341.5 224 368C224 394.5 202.5 416 176 416H160C160 433.7 145.7 448 128 448H64C46.33 448 32 433.7 32 416V336C32 327.2 39.16 320 48 320H176zM192 368C192 359.2 184.8 352 176 352H160V384H176C184.8 384 192 376.8 192 368zM512 464C512 490.5 490.5 512 464 512H336C309.5 512 288 490.5 288 464V320H512V464z"/><path class="fa-secondary" d="M64 144C64 99.82 99.82 64 144 64C188.2 64 224 99.82 224 144C224 188.2 188.2 224 144 224C99.82 224 64 188.2 64 144zM208 480C216.8 480 224 487.2 224 496C224 504.8 216.8 512 208 512H16C7.164 512 0 504.8 0 496C0 487.2 7.164 480 16 480H208zM256 296C256 282.7 266.7 272 280 272H376V264C376 250.7 386.7 240 400 240C413.3 240 424 250.7 424 264V272H520C533.3 272 544 282.7 544 296C544 309.3 533.3 320 520 320H280C266.7 320 256 309.3 256 296z"/></svg>
